!!!ONB: MCCC : ICA0007_00 : Extracted Monophonic Melody
!!!COM: Alkan, Charles-Valentin
!!!OTL: Bourrée d'Auvergne - Etude for Piano
!!!SCT: Op.29
!!!ODT: 1846///
**kern
*staff1
*IPiano
*clefG2
*k[b-e-a-]
*E-:
*M2/2
4G
=1
2g
2g
=2
2g
2g
=3
4g
4a-
4g
4f
=4
8g
8f
8e-
8d
8c
8d
8e-
8f
=5
2g
2g
=6
2g
2g
=7
4g
4a
4b-
4cc
=8
8dd
8cc
8b-
8a
8g
8f
8e-
8d
=9
2g
2g
=10
2g
2g
=11
4g
4a-
4g
4f
=12
8g
8f
8e-
8d
8c
8d
8e-
8f
=13
2g
2g
=14
2g
2g
=15
4g
4a
4b-
4cc
=16
8dd
8cc
8b-
8a
8g
8f
8e-
8d
=17
4ee-
4a
4b-
4cc
=18
8dd
8cc
8b-
8a
2g
=19
4a
4d
4e-
4f
=20
8g
8f
8e-
8d
2c
=21
4ee-
4a
4b-
4cc
=22
8dd
8cc
8b-
8a
2g
=23
4a
4dd
4dd
4dd
=24
8dd
8cc#
8b
8cc#
2dd
=25
4eee-
4aa
4bb-
4ccc
=26
8ddd
8ccc
8bb-
8aa
2gg
=27
4aa
4dd
4ee-
4ff
=28
8gg
8ff
8ee-
8dd
2cc
=29
4eee-
4aa
4bb-
4ccc
=30
8ddd
8ccc
8bb-
8aa
2gg
=31
4aa
4ddd
4ddd
4ddd
=32
8ddd
8ccc#
8bb
8ccc#
2ddd
=33
2B-
2B-
=34
2B-
2B-
=35
8G
8A
8B-
8G
2c
=36
2aa
2bb-
=37
2ccc
2ddd
=38
8ccc
8bb-
8aa
8gg
8ff
8ee-
8dd
8cc
=39
2B-
2B-
=40
2B-
2B-
=41
8G
8A
8B-
8G
2c
=42
2aa
2bb-
=43
2ccc
2ddd
=44
8bb-
8ddd
8bb-
8ff
8dd
8b-
8f
8dd
=45
2d
2d
=46
2d
2d
=47
8B
8c#
8d
8B
2e
=48
2ccc#
2ddd
=49
2eee
2fff#
=50
8eee
8ddd
8ccc#
8bb
8aa
8gg
8ff#
8ee
=51
2d
2d
=52
2d
2d
=53
8B
8c#
8d
8B
2e
=54
8c#
8d
8e
8c#
8d
8e
8f#
8d
=55
8e
8f#
8g
8e
8f#
8g
8a
8f#
=56
8g
8a
8b
8g
8e
8f#
8g
8e
=57
8f#
8g
8a
8f#
8g
8a
8b
8g
=58
8e
8f#
8g
8e
8c#
8d
8e
8c#
=59
8d
8e
8f#
8d
8f#
8g
8a
8f#
=60
8a
8b
8cc
8a
8cc
8dd
8ee
8cc
=61
8a
8b
8cc
8a
8f#
8g
8a
8f#
=62
8g
8a
8b
8g
8b
8cc
8dd
8b
=63
8ee
8ff#
8gg
8ee
8ff#
8gg
8aa
8ff#
=64
8dd
8ee
8ff#
8dd
8b
8cc#
8dd
8b
=65
8cc#
8dd
8ee
8cc#
8ee
8ff#
8gg
8ee
=66
8aa
8bb
8ccc
8aa
8ff#
8gg
8aa
8ff#
=67
8gg
8aa
8bb
8gg
8ee
8ff#
8gg
8ee
=68
8cc
8dd
8ee
8cc
8a
8b
8cc
8a
=69
*k[f#]
*G:
4gg
4dd
4dd
4b
=70
1b[
=71
2b]
6a
6b
6cc
=72
6cc
6dd
6ee
4dd
4b[
=73
1b]
=74
6a
6b
6cc
6cc
6dd
6ee
=75
6dd
6ee
6ff#
6gg
6ff#
6ee
=76
6ff#
6ee
6dd
6ee
6dd
6cc
=77
4cc
4dd
2dd[
=78
2dd]
4gg
4dd
=79
4dd
4b
2b[
=80
1b]
=81
6a
6b
6cc
6cc
6dd
6ee
=82
4dd
4b
2b[
=83
2b]
6a
6b
6cc
=84
6cc
6dd
6ee
6dd
6ee
6ff#
=85
6gg
6ff#
6ee
6ff#
6ee
6dd
=86
6ee
6dd
6cc
4cc
4dd[
=87
1dd]
=88
4b
4dd
4dd
4ff
=89
6ff
6ee
6dd
2ee[
=90
2ee]
4cc
4ee
=91
4ee
4gg
6gg
6ff#
6ee
=92
1ff#
=93
4dd
4ff#
4ff#
4aa
=94
6aa
6gg
6ff#
6gg
6ff#
6ee
=95
6ff#
6ee
6dd
6ee
6dd
6cc
=96
6b
6dd
6cc
6b
6cc
6a
=97
4b
4dd
4dd
4ff
=98
6ff
6ee
6dd
4dd
4ee[
=99
1ee]
=100
4cc
4ee
4ee
4gg
=101
6gg
6ff#
6ee
4ee
4ff#[
=102
1ff#]
=103
4ff#
4aa
4aa
4ccc
=104
6ccc
6bb
6aa
6bb
6aa
6gg
=105
6ff#
6gg
6ee
4ff#
4aa
=106
4aa
4ccc
6ccc
6bb
6aa
=107
6bb
6aa
6gg
6ff#
6gg
6ee
=108
4ff#
4aa
4aa
4ccc
=109
6ccc
6bb
6aa
6bb
6aa
6gg
=110
6ff#
6gg
6ee
6aa
6gg
6ff#
=111
6gg
6ff#
6ee
6dd
6ee
6cc
=112
6ff#
6ee
6dd
6ee
6dd
6cc
=113
4gg
4dd
4dd
4b
=114
6b
6cc
6b
6a
6b
6g
=115
6a
6b
6cc
6cc
6dd
6ee
=116
6dd
6ee
6dd
6cc
6dd
6b
=117
6a
6b
6cc
6cc
6dd
6ee
=118
6dd
6ee
6ff#
6gg
6ff#
6ee
=119
6ff#
6ee
6dd
6ee
6dd
6cc
=120
6b
6cc
6a
6dd
6ee
6ff#
=121
6gg
6ff#
6ee
6ff#
6ee
6dd
=122
6ee
6dd
6cc
6b
6cc
6a
=123
6dd
6ee
6ff#
6gg
6ff#
6ee
=124
6ff#
6ee
6dd
6ee
6dd
6cc
=125
6b
6cc
6a
6b
6g
6b
=126
6a
6g
6b
6a
6cc
6a
=127
6b
6cc
6a
6b
6g
6b
=128
6a
6g
6b
6a
6cc
6a
=129
6b
6cc
6a
6b
6g
6b
=130
6a
6g
6b
6a
6cc
6a
=131
6b
6g
6b
6a
6g
6b
=132
6g
6b
6a
2g
=133
6b
6a
6g
6b
6g
6b
=134
6a
6g
6b
6g
6b
6a
=135
1g
=136
6gg
6b
6gg
6b
6g
6b
=137
1g
=138
6gg
6b
6gg
4b
*k[b-e-a-]
*E-:
4G
=139
2g
2g
=140
2g
2g
=141
4g
4a-
4g
4f
=142
8g
8f
8e-
8d
8c
8d
8e-
8f
=143
2g
2g
=144
2g
2g
=145
4g
4a
4b-
4cc
=146
8dd
8cc
8b-
8a
8g
8f
8e-
8d
=147
2g
2g
=148
2g
2g
=149
4g
4a-
4g
4f
=150
8g
8f
8e-
8d
8c
8d
8e-
8f
=151
2g
2g
=152
2g
2g
=153
4g
4a
4b-
4cc
=154
8dd
8cc
8b-
8a
8g
8f
8e-
8d
=155
4ee-
4a
4b-
4cc
=156
8dd
8cc
8b-
8a
2g
=157
4a
4d
4e-
4f
=158
8g
8f
8e-
8d
2c
=159
4ee-
4a
4b-
4cc
=160
8dd
8cc
8b-
8a
2g
=161
4a
4dd
4dd
4dd
=162
8dd
8cc#
8b
8cc#
2dd
=163
4eee-
4aa
4bb-
4ccc
=164
8ddd
8ccc
8bb-
8aa
2gg
=165
4aa
4dd
4ee-
4ff
=166
8gg
8ff
8ee-
8dd
2cc
=167
4eee-
4aa
4bb-
4ccc
=168
8ddd
8ccc
8bb-
8aa
2gg
=169
4gg
4ccc
4ccc
4ccc
=170
8ccc
8bb
8aa
8bb
2ccc
=171
*k[b-e-a-d-]
*A-:
4E-
4E-
2E-
=172
4F
4F
2F
=173
4G
4G
2G
=174
4A-
4A-
2A-
=175
4B-
4B-
2B-
=176
4c
4c
2c
=177
4d-
4d-
2d-
=178
4c
4c
2c
=179
4B-
4B-
2B-
=180
4c
4c
2c
=181
4A-
4A-
2A-
=182
4B-
4B-
2B-
=183
4E-
4E-
2E-
=184
8cc
8b-
8a-
8g
8a-
8g
8f
8e-
=185
8f
8e-
8d-
8c
8d-
8c
8B-
8A-
=186
8G
8A-
8B-
8c
8d-
8e-
8f
8g
=187
8a-
8b-
8cc
8dd-
8ee-
8ff
8gg
8aa-
=188
8bb-
8ccc
8ddd-
8bb-
8gg
8ee-
8ff
8dd-
=189
8cc
8dd-
8ee-
8cc
8a-
8f
8g
8e-
=190
8f
8g
8a-
8b-
8a-
8b-
8cc
8dd-
=191
8cc
8dd-
8ee-
8ff
8ee-
8ff
8gg
8aa-
=192
8gg
8aa-
8bb-
8ccc
8bb-
8ccc
8ddd-
8eee-
=193
8eee
8fff
8ggg
8fff
8eee
8ddd
8ccc
8bb-
=194
8aa-
8bb-
8ccc
8bb-
8aa-
8gg
8ff
8ee-
=195
8dd-
8ee-
8dd-
8cc
8dd-
8ff
8ee-
8dd-
=196
8cc
8dd-
8ee-
8ff
8gg
8aa-
8bb-
8bb
=197
8ccc
8ddd-
8ccc
8bb-
8aa-
8gg
8ff
8ee-
=198
8dd-
8ee-
8ff
8ee-
8dd-
8cc
8b-
8a-
=199
8b-
8cc
8b-
8a
8b-
8dd-
8cc
8b-
=200
8a-
8b-
8cc
8dd-
8ee-
8ff
8gg-
8gg
=201
8aa-
8bb-
8aa-
8gg-
8ff
8ee-
8dd-
8cc
=202
8b-
8cc
8b-
8a-
8g-
8f
8e-
8d-
=203
8c
8d-
8e-
8f
8g-
8a-
8b-
8cc
=204
8dd-
8ee-
8ff
8gg-
8aa-
8bb-
8ccc-
8ccc
=205
4ddd-
4ddd-
2ddd-
=206
4ggg-
4ggg-
2ggg-
=207
4fff
4fff
2fff
=208
4eee-
4eee-
2eee-
=209
4ddd-
4ddd-
2ddd-
=210
4aa-
4aa-
2aa-
=211
4ccc-
4ccc-
2ccc-
=212
4bb-
4bb-
2bb-
=213
4ddd-
4ddd-
2ddd-
=214
4gg-
4gg-
2gg-
=215
4eee-
4eee-
2eee-
=216
4aa-
4aa-
2aa-
=217
8ff
8bb-
8ddd
8fff
8ddd
8bb-
8ff
8fff
=218
8b-
8ee-
8gg-
8bb-
8gg-
8ee-
8b-
8bb-
=219
8gg-
8ccc
8eee-
8ggg-
8eee-
8ccc
8gg-
8ggg-
=220
8dd-
8ff
8ccc-
8ddd-
8ccc-
8ff
8dd-
8ddd-
=221
4ggg-
4ggg-
2ggg-
=222
4bb-
4bb-
2bb-
=223
4aa-
4aa-
2aa-
=224
4eee-
4eee-
2eee-
=225
4ddd-
4ddd-
2ddd-
=226
4ccc-
4ccc-
2ccc-
=227
4bb-
4bb-
2bb-
=228
4ggg-
4ggg-
2ggg-
=229
4aaa-
4aaa-
2aaa-
=230
4ccc-
4ccc-
2ccc-
=231
4aa-
4aa-
2aa-
=232
4ddd-
4ddd-
2ddd-
=233
4bb-
4bb-
2bb-
=234
4ggg-
4ggg-
2ggg-
=235
4aaa-
4aaa-
2aaa-
=236
4aaa
4aaa
2aaa
=237
4bbb-
4bbb-
2bbb-
=238
4cccc-
4cccc-
2cccc-
=239
8cccc
8bbb-
8aaa-
8ggg
8aaa-
8ggg
8fff
8eee-
=240
8fff
8eee-
8ddd-
8ccc
8ddd-
8ccc
8bb-
8aa-
=241
8bb-
8aa-
8gg
8ff
8gg
8ff
8ee-
8dd-
=242
8ee-
8dd-
8cc
8b-
8a-
8b-
8cc
8dd
=243
8ee
8ff
8gg
8aa-
8bb-
8ccc
8ddd
8eee
=244
8fff
8ggg
8aaa-
8ggg
8bbb-
8aaa-
8ggg
8fff
=245
8cccc
8bbb-
8aaa-
8ggg
8fff
8eee-
8ddd
8ccc
=246
8bb-
8aa-
8gg
8ff
8ee-
8dd
8cc
8b-
=247
2fff
2fff
=248
2fff
2fff
=249
4fff
4ggg-
4fff
4eee-
=250
8fff
8eee-
8ddd-
8ccc
8bb-
8ccc
8ddd-
8eee-
=251
2fff
2fff
=252
2fff
2fff
=253
4fff
4ggg
4aaa-
4bbb-
=254
8cccc
8bbb-
8aaa-
8ggg
8fff
8eee-
8ddd-
8ccc
=255
4ddd-
4gg
4aa-
4bb-
=256
8ccc
8bb-
8aa-
8gg
2ff
=257
4gg
4cc
4dd-
4ee-
=258
8ff
8ee-
8dd-
8cc
2b-
=259
4ddd-
4gg
4aa-
4bb-
=260
8ccc
8bb-
8aa-
8gg
2ff
=261
4gg
4ccc
4ccc
4ccc
=262
8ccc
8bb
8aa
8bb
2ccc
=263
4bb-
8bb-
8bbb-
8aa-
8aaa-
8gg
8ggg
=264
8ff
8fff
8aa-
8aaa-
8gg
8ggg
8ff
8fff
=265
8ee-
8eee-
8gg
8ggg
8ff
8fff
8ee-
8eee-
=266
8dd-
8ddd-
8ff
8fff
8ee-
8eee-
8dd-
8ddd-
=267
4ddd-
8g
8gg
8a-
8aa-
8b-
8bb-
=268
8ccc
8bb-
8aa-
8gg
8ff
8ee-
8dd-
8cc
=269
4aaa-
8dd
8ddd
8ee-
8eee-
8ff
8fff
=270
8ggg
8fff
8eee-
8ddd
8ccc
8bb-
8aa-
8gg
=271
4ff
8ff
8fff
8ee-
8eee-
8dd
8ddd
=272
8cc
8ccc
8ee-
8eee-
8dd
8ddd
8cc
8ccc
=273
8dd
8ddd
8ddd
8ggg
8ccc
8ggg
8bb-
8ggg
=274
8gg
8fff#
8ee
8fff#
8gg
8fff#
8ee
8fff#
=275
8gg
8fff#
8ee
8fff#
8gg
8fff#
8ee
8fff#
=276
8gg
8fff#
8ee
8fff#
8gg
8fff#
8ee
8fff#
=277
8gg
8fff#
8ee
8fff#
8gg
8fff#
8ee
8fff#
=278
8gg
8ggg
8r
8aaa-
8r
8fff
8r
8eee-
=279
8r
8ddd
8r
8ccc
8r
8aa-
8r
8ff
=280
8r
8ee-
8r
8dd
8r
8cc
8r
8a-
=281
8r
8f
8r
8e-
8r
8d
8r
8g
=282
1r
=283
8r
8r
2r
=284
*k[]
*C:
1r
=285
1r
=286
1r
=287
4ccc
4gg
4gg
4ee
=288
1ee[
=289
2ee]
6dd
6ee
6ff
=290
6ff
6gg
6aa
4gg
4ee[
=291
1ee]
=292
6dd
6ee
6ff
6ff
6gg
6aa
=293
6gg
6aa
6bb
6ccc
6bb
6aa
=294
6bb
6aa
6gg
6aa
6gg
6ff
=295
4ff
4gg
2gg[
=296
2gg]
4ccc
4gg
=297
4gg
4ee
2ee[
=298
1ee]
=299
6dd
6ee
6ff
6ff
6gg
6aa
=300
4gg
4ee
2ee[
=301
2ee]
6dd
6ee
6ff
=302
6ff
6gg
6aa
6gg
6aa
6bb
=303
6ccc
6bb
6aa
6bb
6aa
6gg
=304
6aa
6gg
6ff
4ff
4gg[
=305
1gg]
=306
4ee
4gg
4gg
4bb-
=307
6bb-
6aa
6gg
2aa[
=308
2aa]
4dd#
4ff#
=309
4ff#
4aa
6aa
6gg
6ff#
=310
1gg
=311
4cc#
4ee
4ee
4gg
=312
6gg
6ff
6ee
6ff
6ee
6dd
=313
6ee
6dd
6cc#
6dd
6cc#
6b
=314
6cc#
6ee
6dd
6cc#
6dd
6b
=315
4ee
4gg
4gg
4bb-
=316
6bb-
6aa
6gg
4gg
4aa[
=317
1aa]
=318
4ff#
4aa
4aa
4ccc
=319
6ccc
6bb
6aa
4aa
4bb[
=320
1bb]
=321
4gg
4bb-
4bb-
4ddd-
=322
6ddd-
6ccc
6bb-
6ccc
6bb-
6aa-
=323
6gg
6aa-
6ff
4gg
4bb-
=324
4bb-
4ddd-
6ddd-
6ccc
6bb-
=325
6ccc
6bb-
6aa-
6gg
6aa-
6ff
=326
4gg
4bb-
4bb-
4ddd-
=327
6ddd-
6ccc
6bb-
6ccc
6bb-
6aa-
=328
6gg
6aa-
6ff
6bb-
6aa-
6gg
=329
6aa-
6gg
6ff
6ee-
6ff
6dd-
=330
6gg
6ff
6ee-
6ff
6ee-
6dd-
=331
4gg
4dd
4dd
4b
=332
6b
6cc
6b
6a
6b
6g
=333
6a
6b
6cc
6cc
6dd
6ee
=334
6dd
6ee
6dd
6cc
6dd
6b
=335
6a
6b
6cc
6cc
6dd
6ee
=336
6dd
6ee
6ff#
6gg
6ff#
6ee
=337
6ff#
6ee
6dd
6ee
6dd
6cc
=338
6b
6cc
6a
6dd
6ee
6ff#
=339
6gg
6ff#
6ee
6ff#
6ee
6dd
=340
6ee
6dd
6cc
6b
6cc
6a
=341
6dd
6ee
6ff#
6gg
6ff#
6ee
=342
6ff#
6ee
6dd
6ee
6dd
6cc
=343
6b
6cc
6dd
6g
6a
6b
=344
6a
6b
6cc
6b
6cc
6dd
=345
6g
6a
6b
6a
6b
6cc
=346
6b
6cc
6dd
6g
6a
6b
=347
6a
6b
6cc
6b
6cc
6dd
=348
6g
6a
6b
6a
6b
6cc
=349
6b
6g
6b
6a
6g
6b
=350
6g
6b
6a
6g
6b
6g
=351
6b
6a
6g
6b
6g
6b
=352
6a
6g
6b
6g
6b
6a
=353
6g
6b
6g
6b
6gg
6b
=354
6gg
6b
6gg
6b
6g
6b
=355
6g
6b
6g
6b
6gg
6b
=356
6gg
6b
6gg
4b
*k[b-e-a-]
*E-:
4G
=357
2g
2g
=358
2g
2g
=359
4g
4a-
4g
4f
=360
8g
8f
8e-
8d
8c
8d
8e-
8f
=361
2g
2g
=362
2g
2g
=363
4g
4a
4b-
4cc
=364
8dd
8cc
8b-
8a
8g
8f
8e-
8d
=365
2g
2g
=366
2g
2g
=367
4g
4a-
4g
4f
=368
4a-
4b-
4a-
4g
=369
4b-
4cc
4b-
4a-
=370
4a-
4b-
4a-
4g
=371
4b-
4cc
4b-
4a-
=372
4cc
4dd
4cc
4b-
=373
4dd
4ee-
4dd
4cc
=374
4cc
4dd
4cc
4b-
=375
4dd
4ee-
4dd
4cc
=376
4ee-
4ff
4ee-
4dd
=377
4ff
4gg
4ff
4ee-
=378
4ee-
4ff
4ee-
8dd
8r
=379
2cccc
4.bbb-
8aaa-
=380
2ggg
2eee-
=381
2ccc
2ddd-
=382
1ddd
=383
2ddd
4.eee-
8fff
=384
2eee-
2ddd
=385
2eee-
2ccc
=386
1ccc
=387
2cccc
4.bbb
8aaa
=388
2ggg
2eee
=389
2ccc
2eee
=390
1ddd
=391
2bb
4.ccc
8ddd
=392
2ccc
2bb
=393
2aa
2ggg
=394
1gg
=395
2bbb-
4.aaa
8ggg
=396
2fff
2ddd
=397
2bb-
2ccc
=398
1ccc
=399
2ggg
4.fff
8eee-
=400
2ddd
2bb-
=401
2gg
2aa-
=402
1aa-
=403
2eeee-
4.dddd
8cccc
=404
2bbb
2cccc
=405
2cccc
2cccc
=406
2cccc
2cccc
=407
2cccc
2cccc
=408
2cccc
2cccc
=409
2cccc
2cccc
=410
2cccc
2bbb
=411
8r
8ccc
8r
8cccc
8r
8bbb-
8r
8aaa-
=412
8r
8ggg
8r
8eee-
8r
8ccc
8r
8ddd
=413
8r
8bb
8r
8gg
8r
8ccc
8r
8gg
=414
8r
8ccc#
8r
8gg
8r
8ddd
8r
8gg
=415
8r
8eee-
8r
8eeee-
8r
8dddd
8r
8cccc
=416
8r
8bbb-
8r
8ggg
8r
8eee-
8r
8fff
=417
8r
8ddd
8r
8bb-
8r
8eee-
8r
8bb-
=418
8r
8eee
8r
8bb-
8r
8fff
8r
8bb-
=419
8r
8ggg
8r
8gggg
8r
8ffff
8r
8eeee-
=420
8r
8dddd
8r
8bbb-
8r
8ggg
8r
8aaa
=421
8r
8fff#
8r
8ddd
8r
8ggg
8r
8ddd
=422
8r
8ggg#
8r
8ddd
8r
8aaa
8r
8ddd
=423
8r
8bbb-
8r
8dddd
8r
8ffff
8r
8aaa
=424
8r
8ggg
8r
8bbb-
8r
8dddd
8r
8fff
=425
8r
8eee-
8r
8ggg
8r
8bbb-
8r
8ddd
=426
8r
8ccc
8r
8eee-
8r
8ggg
8r
8bbb-
=427
8r
8aaa
8r
8cccc
8r
8eeee-
8r
8ggg
=428
8r
8fff
8r
8aaa
8r
8cccc
8r
8eee-
=429
8r
8ddd
8r
8fff
8r
8aaa
8r
8ccc
=430
8r
8bb-
8r
8ddd
8r
8fff
8r
8aaa
=431
8r
8ggg
8r
8bbb-
8r
8dddd
8r
8fff
=432
8r
8eee-
8r
8ggg
8r
8bbb-
8r
8ddd
=433
8r
8ccc
8r
8eee-
8r
8ggg
8r
8bb-
=434
8r
8aa
8r
8bb-
8r
8ccc
8r
8ddd
=435
8r
8bb-
8r
8ccc
8r
8ddd
8r
8ggg
=436
8r
8ddd
8r
8eee-
8r
8fff
8r
8ggg
=437
8r
8eee-
8r
8fff
8r
8ggg
8r
8cccc
=438
8r
8ggg
8r
8aaa-
8r
8bbb-
8r
8cccc
=439
8r
8aaa-
8r
8bbb-
8r
8cccc
8r
8dddd
=440
8r
8eeee-
8r
8bbb
8r
8cccc
8r
8ggg
=441
8r
8aaa-
8r
8eee
8r
8fff
8r
8ccc#
=442
8r
8ddd
8r
8aa#
8r
8bb
8r
8ff#
=443
8r
8gg
8r
8dd
8r
8ee-
8r
8b
=444
8r
8cc
8r
8dd
8r
8ee-
8r
8ee
=445
8r
8ff
8r
8ff#
8r
8gg
8r
8aa-
=446
8r
8gg
8r
8ff#
8r
8gg
8r
8g
=447
8r
8cc
8r
8g
8r
8cc
8r
8g
=448
8r
8cc
8r
8g
8r
8cc
8r
8dd
=449
8r
8ee-
8r
8b-
8r
8ee-
8r
8b-
=450
8r
8ee-
8r
8b-
8r
8ee-
8r
8ff
=451
8r
8gg-
8r
8dd-
8r
8gg-
8r
8dd-
=452
8r
8gg-
8r
8dd-
8r
8gg-
8r
8aa-
=453
8r
8aa
8r
8ee
8r
8aa
8r
8bb
=454
8r
8ccc
8r
8gg
8r
8ccc
8r
8ddd
=455
8r
8eee-
8r
8bb-
8r
8eee-
8r
8fff
=456
8r
8ggg-
8r
8ddd-
8r
8ggg-
8r
8aaa-
=457
8r
8aaa
8r
8eee
8r
8aaa
8r
8bbb
=458
8r
8cccc
8r
8ggg
8r
8cccc
8r
8dddd
=459
8r
8eeee-
8r
8bbb-
8r
8eeee-
8r
8eeee
=460
8r
8ffff
8r
8ffff#
8r
8gggg
8r
8gggg#
=461
8r
8aaaa
8r
8eeee
8r
8cccc#
8r
8aaa
=462
8r
8eee
8r
8ccc#
8r
8aa
8r
8ee
=463
8r
8dd
8r
8ff#
8r
8aa
8r
8ddd
=464
8r
8gg
8r
8bb
8r
8ddd
8r
8ggg
=465
8r
8eee-
8r
8ccc
8r
8aa-
8r
8ff
=466
8r
8dd
8r
8aa-
8r
8gg
8r
8g
=467
*k[]
*C:
2g
2g
=468
2g
2g
=469
4ccc
4gg
4gg
4ee
=470
6ff
6ee
6dd
6ee
6dd
6cc
=471
2b
2b
=472
2b
2b
=473
4eee
4bb
4bb
4gg#
=474
6aa
6gg#
6ff#
6gg#
6ff#
6ee
=475
2gg
2ggg
=476
2eee
2eeee
=477
2ccc
2cccc
=478
2aa
2aaa
=479
2gg
2ggg
=480
2ee
2eee
=481
2cc
2ccc
=482
2a
2aa
=483
6ggg
6fff
6eee
6ddd
6eee
6ccc
=484
6ggg
6fff
6eee
6ddd
6eee
6ccc
=485
6ggg
6fff
6eee
6ddd
6eee
6ccc
=486
6ggg
6fff
6eee
6ddd
6eee
6ccc
=487
6ggg
6fff
6eee
6ddd
6eee
6ccc
=488
6ggg
6fff
6eee
6ddd
6eee
6ccc
=489
4cccc
4r
2r
=490
4dddd
4r
2r
=491
4eeee
4r
4ee
4r
==
*-
